X:1
T:Title
%%score 1 { 2 | 3 }
L:1/8
Q:1/4=112
M:4/4
K:F
V:1 treble nm="Grand Piano, Soprano"
V:2 bass nm="Choir Pad, Hetch Hetchy, 66.66,88"
V:3 bass 
V:1
 F2 [FA]2- [FA][DG] [CF]2 | [CE]2 [CF]4 z2 | [FA]2 [Ec]2- [Ec][GB] [FA]2 | [EG]2 [FA]4 z2 | %4
w: By~William~T.~Rogers,~1871 * * * *||||
 [FA]2 [EG]2- [EG][FA] [GB]2 | [EG]2 [FA]2- [FA][GB] [Ac]2 | [FA]2 [Bd]2- [Bd][Ac] [GB]2 | %7
w: |||
 [FA]2 [EG]4 z2 | [Ec]2 [Fc]2- [Fc][Fd] [Fc]2 | [FA]2 [EG]2 F2 [FB]2- | %10
w: |||
 [FB][Fd] [Fc]2- [Fc][FA] [EG]2- | [EG][GB] [FA]2 [EG]2 F2- | F6 z2 |] %13
w: |||
V:2
 A,2 C2- CB, A,2 | G,2 A,4 z2 | F,2 G,2- G,C C2 | C2 A,4 z2 | C2 C2- CC C2 | C2 C6 | %6
 C2 B,2- B,C C2 | C2 C4 z2 | G,2 A,2- A,B, A,2 | C2 C2 A,2 D2- | D[K:bass]B, A,2- A,C C2- | %11
 CC C2 B,2 A,2- | A,6 z2 |] %13
V:3
 F,2 F,2- F,B,, C,2 | C,2 F,4 z2 | D,2 C,2- C,C, C,2 | C,2 F,4 z2 | F,2 C,2- C,C, C,2 | C,2 F,6 | %6
 F,2 F,2- F,F, E,2 | F,2 C,4 z2 | C,2 F,2- F,F, F,2 | F,2 C,2 D,2 B,,2- | B,,B,, C,2- C,C, C,2- | %11
 C,C, C,2 C,2 [F,,F,]2- | [F,,F,]6 z2 |] %13

